icons/car/car-front.svg

<svg width="14" height="14" viewBox="0 0 14 14" fill="none" xmlns="http://www.w3.org/2000/svg">
<path d="M7.99121 2.5C8.61003 2.5 9.19845 2.67326 9.70215 2.98047C9.91807 3.11214 10.1183 3.26846 10.2988 3.44629C10.6598 3.80199 10.9415 4.24378 11.1094 4.74707L11.332 5.41504C11.3811 5.56192 11.4866 5.68349 11.625 5.75293C12.1612 6.02178 12.5 6.57009 12.5 7.16992V7.64453C12.5 8.44005 12.1041 9.14187 11.5 9.56836V10.5C11.5 11.0523 11.0523 11.5 10.5 11.5C9.94772 11.5 9.5 11.0523 9.5 10.5V10H4.5V10.5C4.5 11.0523 4.05228 11.5 3.5 11.5C2.94772 11.5 2.5 11.0523 2.5 10.5V9.56836C1.89587 9.14187 1.5 8.44005 1.5 7.64453V7.16992C1.5 6.57009 1.8388 6.02178 2.375 5.75293C2.47881 5.70084 2.56326 5.61895 2.62012 5.51953C2.63892 5.48649 2.65476 5.45161 2.66699 5.41504L2.88965 4.74707C3.02952 4.32766 3.2483 3.95062 3.52637 3.63086C3.5819 3.56696 3.6401 3.50553 3.7002 3.44629C3.88087 3.26831 4.08169 3.11223 4.29785 2.98047C4.80155 2.67326 5.38997 2.5 6.00879 2.5H7.99121ZM2.73828 6.7002C2.59059 6.80941 2.5 6.98242 2.5 7.16992V7.64453C2.5 8.39287 3.10713 9 3.85547 9H10.1445C10.8929 9 11.5 8.39287 11.5 7.64453V7.16992C11.5 6.98242 11.4094 6.80941 11.2617 6.7002H2.73828ZM6.00879 3.5C5.88566 3.5 5.76431 3.51022 5.64551 3.5293C5.52704 3.54833 5.41123 3.57655 5.29883 3.61328C4.96099 3.72365 4.65454 3.91083 4.40332 4.1582C4.27761 4.28201 4.16537 4.4206 4.07031 4.57227C3.97531 4.72385 3.89727 4.88837 3.83887 5.06348L3.62695 5.7002H10.373L10.1611 5.06348C9.84971 4.12974 8.97551 3.5 7.99121 3.5H6.00879Z" fill="red"/>
<path d="M5 7.74957H9" stroke="red" stroke-linecap="round"/>
<circle cx="3.5" cy="7.74896" r="0.5" fill="red"/>
<circle cx="10.5" cy="7.75" r="0.5" fill="red"/>
</svg>

<svg xmlns="http://www.w3.org/2000/svg" width="14" height="14" fill="none" viewBox="0 0 14 14"><path fill="red" d="M7.991 2.5a3.28 3.28 0 0 1 2.308.946c.36.356.643.798.81 1.301l.223.668c.05.147.155.268.293.338.536.269.875.817.875 1.417v.475a2.35 2.35 0 0 1-1 1.923v.932a1 1 0 1 1-2 0V10h-5v.5a1 1 0 1 1-2 0v-.932a2.35 2.35 0 0 1-1-1.923V7.17c0-.6.339-1.148.875-1.417a.6.6 0 0 0 .292-.338l.223-.668A3.28 3.28 0 0 1 6.009 2.5zM2.738 6.7a.59.59 0 0 0-.238.47v.475C2.5 8.393 3.107 9 3.855 9h6.29c.748 0 1.355-.607 1.355-1.355V7.17c0-.188-.09-.36-.238-.47zm3.27-3.2a2.29 2.29 0 0 0-2.17 1.563l-.211.637h6.746l-.212-.637A2.29 2.29 0 0 0 7.991 3.5z"/><path stroke="red" stroke-linecap="round" d="M5 7.75h4"/><circle cx="3.5" cy="7.749" r=".5" fill="red"/><circle cx="10.5" cy="7.75" r=".5" fill="red"/></svg>
